images/streamr_old.svg

<svg height="250" viewBox="0 0 250 250" width="250" xmlns="http://www.w3.org/2000/svg"><path d="m156.308594 11.554688v-7.207032c0-2.472656-2.058594-4.460937-4.527344-4.34374975-48.460938 2.30078175-87.292969 41.35156275-89.246094 89.89062475.105469 3.042969 2.566406 3.839844 4.015625 3.839844h7.320313c2.316406 0 4.214844-1.820313 4.335937-4.132813 2.078125-39.933593 34.121094-71.9375 74.074219-73.960937 3.050781-.394531 4.027344-2.058594 4.027344-4.085937m-65.902344 82.179687h7.007812c2.273438 0 4.128907-1.773437 4.296876-4.042969 1.976562-27.128906 23.734374-48.769531 50.917968-50.574218 1.214844-.082032 3.679688-.992188 3.679688-4.140626v-7.132812c0-2.519531-2.136719-4.5-4.652344-4.335938-35.167969 2.292969-63.289062 30.414063-65.585938 65.574219-.164062 2.511719 1.816407 4.652344 4.339844 4.652344m65.898438-42.355469v7.167969c0 2.929687-2.546875 3.984375-3.789063 4.136719-14.222656 1.714844-25.503906 12.972656-27.257812 27.179687-.269531 2.199219-2.101563 3.871094-4.320313 3.871094h-6.996094c-2.550781 0-4.582031-2.191406-4.328124-4.730469 2.21875-22.136718 19.820312-39.738281 41.960937-41.953125 2.539063-.253906 4.730469 1.777344 4.730469 4.328125zm82.136718 104.707032c-2.027343 0-3.695312-.976563-4.085937-4.023438-2.027344-39.949219-34.035156-71.984375-73.972656-74.066406-2.316407-.121094-4.132813-2.019532-4.132813-4.335938v-7.320312c0-1.445313.796875-3.910156 3.839844-4.011719 48.546875 1.953125 87.597656 40.78125 89.902344 89.230469.117187 2.46875-1.871094 4.527344-4.34375 4.527344zm-82.191406-65.890626c0-2.519531 2.136719-4.5 4.652344-4.335937 35.167969 2.296875 63.289062 30.414063 65.582031 65.574219.164063 2.515625-1.816406 4.652344-4.335937 4.652344h-7.136719c-3.148437 0-4.058594-2.460938-4.140625-3.675782-1.800781-27.179687-23.445312-48.933594-50.582031-50.914062-2.265625-.167969-4.039063-2.019532-4.039063-4.292969zm42.359375 65.890626h-7.167969c-2.929687 0-3.988281-2.546876-4.136718-3.785157-1.714844-14.222656-12.976563-25.503906-27.183594-27.253906-2.199219-.273437-3.871094-2.105469-3.871094-4.320313v-6.996093c0-2.550781 2.191406-4.582031 4.730469-4.328125 22.136719 2.214844 39.742187 19.820312 41.957031 41.957031.253906 2.535156-1.777344 4.726563-4.328125 4.726563zm-187.058593-62.371094c2.027343 0 3.695312.976562 4.085937 4.023437 2.027344 39.949219 34.035156 71.988281 73.972656 74.066407 2.316407.121093 4.132813 2.019531 4.132813 4.335937v7.320313c0 1.445312-.796875 3.910156-3.839844 4.011718-48.546875-1.953125-87.597656-40.78125-89.90234375-89.230468-.11718725-2.46875 1.87109375-4.527344 4.34374975-4.527344zm82.191406 65.890625c0 2.519531-2.136719 4.5-4.652344 4.335937-35.167969-2.296875-63.289062-30.414062-65.582031-65.574218-.164063-2.515626 1.816406-4.652344 4.335937-4.652344h7.136719c3.148437 0 4.058594 2.460937 4.140625 3.675781 1.800781 27.179687 23.445312 48.933594 50.582031 50.914063 2.265625.164062 4.039063 2.019531 4.039063 4.292968zm-42.359375-65.890625h7.167969c2.929687 0 3.988281 2.546875 4.136718 3.785156 1.714844 14.21875 12.976563 25.5 27.183594 27.257812 2.199219.269532 3.871094 2.101563 3.871094 4.316407v6.996093c0 2.550782-2.191406 4.582032-4.730469 4.328126-22.136719-2.21875-39.742187-19.820313-41.957031-41.957032-.253906-2.535156 1.777344-4.726562 4.328125-4.726562zm42.378906 144.730468c0-2.027343.976563-3.691406 4.023437-4.085937 39.953126-2.023437 71.996094-34.027344 74.074219-73.960937.121094-2.3125 2.019531-4.132813 4.339844-4.132813h7.320313c1.445312 0 3.910156.796875 4.011718 3.839844-1.953125 48.539062-40.785156 87.585937-89.242187 89.890625-2.46875.117187-4.527344-1.871094-4.527344-4.34375zm65.898437-82.179687c2.519532 0 4.5 2.136719 4.335938 4.652344-2.292969 35.160156-30.417969 63.28125-65.582031 65.574219-2.515625.164062-4.652344-1.816407-4.652344-4.335938v-7.132812c0-3.152344 2.460937-4.058594 3.675781-4.140626 27.183594-1.804687 48.941406-23.445312 50.921875-50.574218.164063-2.269532 2.019531-4.042969 4.292969-4.042969zm-65.898437 42.355469v-7.167969c0-2.929687 2.546875-3.984375 3.785156-4.136719 14.222657-1.714844 25.507813-12.972656 27.257813-27.179687.273437-2.199219 2.105468-3.871094 4.320312-3.871094h6.996094c2.550781 0 4.582031 2.191406 4.328125 4.730469-2.214844 22.136718-19.820313 39.738281-41.960937 41.953125-2.539063.253906-4.726563-1.777344-4.726563-4.328125zm0 0" fill="#ff5c00" fill-rule="evenodd"/></svg>

<svg xmlns="http://www.w3.org/2000/svg" xmlns:xlink="http://www.w3.org/1999/xlink" width="250px" height="250px" viewBox="0 0 250 250" version="1.1">
<g id="surface1">
<path style=" stroke:none;fill-rule:evenodd;fill:rgb(100%,36.078432%,0%);fill-opacity:1;" d="M 156.308594 11.554688 L 156.308594 4.347656 C 156.308594 1.875 154.25 -0.113281 151.78125 0.00390625 C 103.320312 2.304688 64.488281 41.355469 62.535156 89.894531 C 62.640625 92.9375 65.101562 93.734375 66.550781 93.734375 L 73.871094 93.734375 C 76.1875 93.734375 78.085938 91.914062 78.207031 89.601562 C 80.285156 49.667969 112.328125 17.664062 152.28125 15.640625 C 155.332031 15.246094 156.308594 13.582031 156.308594 11.554688 M 90.40625 93.734375 L 97.414062 93.734375 C 99.6875 93.734375 101.542969 91.960938 101.710938 89.691406 C 103.6875 62.5625 125.445312 40.921875 152.628906 39.117188 C 153.84375 39.035156 156.308594 38.125 156.308594 34.976562 L 156.308594 27.84375 C 156.308594 25.324219 154.171875 23.34375 151.65625 23.507812 C 116.488281 25.800781 88.367188 53.921875 86.070312 89.082031 C 85.90625 91.59375 87.886719 93.734375 90.410156 93.734375 M 156.308594 51.378906 L 156.308594 58.546875 C 156.308594 61.476562 153.761719 62.53125 152.519531 62.683594 C 138.296875 64.398438 127.015625 75.65625 125.261719 89.863281 C 124.992188 92.0625 123.160156 93.734375 120.941406 93.734375 L 113.945312 93.734375 C 111.394531 93.734375 109.363281 91.542969 109.617188 89.003906 C 111.835938 66.867188 129.4375 49.265625 151.578125 47.050781 C 154.117188 46.796875 156.308594 48.828125 156.308594 51.378906 Z M 238.445312 156.085938 C 236.417969 156.085938 234.75 155.109375 234.359375 152.0625 C 232.332031 112.113281 200.324219 80.078125 160.386719 77.996094 C 158.070312 77.875 156.253906 75.976562 156.253906 73.660156 L 156.253906 66.339844 C 156.253906 64.894531 157.050781 62.429688 160.09375 62.328125 C 208.640625 64.28125 247.691406 103.109375 249.996094 151.558594 C 250.113281 154.027344 248.125 156.085938 245.652344 156.085938 Z M 156.253906 90.195312 C 156.253906 87.675781 158.390625 85.695312 160.90625 85.859375 C 196.074219 88.15625 224.195312 116.273438 226.488281 151.433594 C 226.652344 153.949219 224.671875 156.085938 222.152344 156.085938 L 215.015625 156.085938 C 211.867188 156.085938 210.957031 153.625 210.875 152.410156 C 209.074219 125.230469 187.429688 103.476562 160.292969 101.496094 C 158.027344 101.328125 156.253906 99.476562 156.253906 97.203125 Z M 198.613281 156.085938 L 191.445312 156.085938 C 188.515625 156.085938 187.457031 153.539062 187.308594 152.300781 C 185.59375 138.078125 174.332031 126.796875 160.125 125.046875 C 157.925781 124.773438 156.253906 122.941406 156.253906 120.726562 L 156.253906 113.730469 C 156.253906 111.179688 158.445312 109.148438 160.984375 109.402344 C 183.121094 111.617188 200.726562 129.222656 202.941406 151.359375 C 203.195312 153.894531 201.164062 156.085938 198.613281 156.085938 Z M 11.554688 93.714844 C 13.582031 93.714844 15.25 94.691406 15.640625 97.738281 C 17.667969 137.6875 49.675781 169.726562 89.613281 171.804688 C 91.929688 171.925781 93.746094 173.824219 93.746094 176.140625 L 93.746094 183.460938 C 93.746094 184.90625 92.949219 187.371094 89.90625 187.472656 C 41.359375 185.519531 2.308594 146.691406 0.00390625 98.242188 C -0.113281 95.773438 1.875 93.714844 4.347656 93.714844 Z M 93.746094 159.605469 C 93.746094 162.125 91.609375 164.105469 89.09375 163.941406 C 53.925781 161.644531 25.804688 133.527344 23.511719 98.367188 C 23.347656 95.851562 25.328125 93.714844 27.847656 93.714844 L 34.984375 93.714844 C 38.132812 93.714844 39.042969 96.175781 39.125 97.390625 C 40.925781 124.570312 62.570312 146.324219 89.707031 148.304688 C 91.972656 148.46875 93.746094 150.324219 93.746094 152.597656 Z M 51.386719 93.714844 L 58.554688 93.714844 C 61.484375 93.714844 62.542969 96.261719 62.691406 97.5 C 64.40625 111.71875 75.667969 123 89.875 124.757812 C 92.074219 125.027344 93.746094 126.859375 93.746094 129.074219 L 93.746094 136.070312 C 93.746094 138.621094 91.554688 140.652344 89.015625 140.398438 C 66.878906 138.179688 49.273438 120.578125 47.058594 98.441406 C 46.804688 95.90625 48.835938 93.714844 51.386719 93.714844 Z M 93.765625 238.445312 C 93.765625 236.417969 94.742188 234.753906 97.789062 234.359375 C 137.742188 232.335938 169.785156 200.332031 171.863281 160.398438 C 171.984375 158.085938 173.882812 156.265625 176.203125 156.265625 L 183.523438 156.265625 C 184.96875 156.265625 187.433594 157.0625 187.535156 160.105469 C 185.582031 208.644531 146.75 247.691406 98.292969 249.996094 C 95.824219 250.113281 93.765625 248.125 93.765625 245.652344 Z M 159.664062 156.265625 C 162.183594 156.265625 164.164062 158.402344 164 160.917969 C 161.707031 196.078125 133.582031 224.199219 98.417969 226.492188 C 95.902344 226.65625 93.765625 224.675781 93.765625 222.15625 L 93.765625 215.023438 C 93.765625 211.871094 96.226562 210.964844 97.441406 210.882812 C 124.625 209.078125 146.382812 187.4375 148.363281 160.308594 C 148.527344 158.039062 150.382812 156.265625 152.65625 156.265625 Z M 93.765625 198.621094 L 93.765625 191.453125 C 93.765625 188.523438 96.3125 187.46875 97.550781 187.316406 C 111.773438 185.601562 123.058594 174.34375 124.808594 160.136719 C 125.082031 157.9375 126.914062 156.265625 129.128906 156.265625 L 136.125 156.265625 C 138.675781 156.265625 140.707031 158.457031 140.453125 160.996094 C 138.238281 183.132812 120.632812 200.734375 98.492188 202.949219 C 95.953125 203.203125 93.765625 201.171875 93.765625 198.621094 Z M 93.765625 198.621094 "/>
</g>
</svg>
